X:1
T:Title
%%score { 1 | 2 }
L:1/8
M:4/4
K:G
V:1 treble nm="Grand Piano"
V:2 bass 
V:1
 z4[Q:1/4=100] [B,G]3 [CE] | [B,D]2 [B,D]2 [CE]2 [B,D]2 | [B,D]2 [B,DG]4 [G,DG]>A | B2 B2 A2 G2 | %4
 A4 B3 A | G2 G2 E2 [EG]2 |[M:3/4] [CE]2 [B,D]4 |[M:1/4] [B,D]>[B,D] | %8
[M:4/4] [CD]2 [CA]2 [^CA]2 [CB]2 | A4 B3 c | d2 B2 A2 G2 | [EA]2 [^DB]4 [DB]>[FA] | G2 G2 E2 G2 | %13
[M:2/4] [DFA]4 | [DGB]3 [DAc] |[M:4/4] [DBd]2 [DGB]2 [CFA]2 [DFB]2 | %16
 [B,EG]2 [G,B,E]2 [G,EG]3 [G,CE] | [G,B,D]2 [B,DG]2 [B,DG]2 [CDA]2 |[M:3/4] [B,DG]6 | %19
[M:1/4] [B,DG]2 |[M:4/4] [DFA]2 [DFA]2 [DGB]2 [CDA]2 |[M:3/4] [CDA]2 [B,DG]4 |[M:1/4] G2 | %23
[M:4/4] B2 B2 c2 B2 | [GB]2 [FA]2 [Fd]3 [Ac] | B2 B2 A2 G2 | [EA]2 [EG]2 [EG]3 E | D2 G2 G2 A2 | %28
[M:2/4] [B,DG]4 |] %29
V:2
 z4 [G,,G,]3 [G,,G,] | [G,,G,]2 [G,,G,]2 [G,,G,]2 [G,,G,]2 | [G,,G,]2 G,,4 B,,>[D,F,D] | %3
 [G,D]2 [G,D]2 [F,A,D]2 [E,A,^C]2 | [D,F,D]4 [D,F,D]3 [D,F,C] | %5
 [E,G,B,]2 [E,G,B,]2 [C,G,C]2 [C,G,]2 |[M:3/4] [G,,G,]2 [G,,G,]4 |[M:1/4] [G,,G,]>[G,,G,] | %8
[M:4/4] [D,F,]2 [D,F,]2 [A,,E,]2 [A,,G,]2 | [D,F,D]4 [G,D]3 [G,A,D] | %10
 [G,B,D]2 [G,D]2 [D,F,C]2 [E,G,B,]2 | [C,E,]2 [B,,F,]4 [B,,F,]>[B,,B,] | %12
 [E,B,E]2 [E,B,E]2 [E,G,B,]2 [E,B,E]2 |[M:2/4] D,4 | G,3 G, |[M:4/4] G,2 G,2 D,2 B,,2 | %16
 E,2 E,2 C,3 C, | D,2 D,2 D,2 D,2 |[M:3/4] G,,6 |[M:1/4] G,2 |[M:4/4] D,2 D,2 D,2 D,2 | %21
[M:3/4] G,,2 G,,4 |[M:1/4][K:treble] [G,B,D]2 |[M:4/4] [G,DG]2 [G,DG]2 [G,EG]2 [G,DG]2 | %24
 [D,D]2 [D,D]2 [D,A,]3 [F,D] | [G,DG]2 [G,DG]2[K:bass] [G,CD]2 [G,B,D]2 | %26
 [C,C]2 [C,C]2 [C,C]3 [C,G,C] | [D,G,B,]2 [D,B,D]2 [D,B,D]2 [D,CD]2 |[M:2/4] G,,4 |] %29

